X: 27598
T: Monvara Bridge
R: polka
M: 2/4
K: Gmajor
.f2.e2||dB B/2d/2B/2A/2 GB Bd/2B/2|ABcd ed B3/2c/2|dB B/2d/2B/2A/2 GB Bd/2B/2|ABcA GF G3/2e/2|
dB B/2d/2B/2A/2 GB Bd/2B/2|ABcd edBc|dB B/2d/2B/2A/2 GB Bd/2B/2|ABcA GF G2||
dg gf/2e/2 dB Bd/2B/2|ABcd ed Bc|dg gf/2e/2 dB Bd/2B/2|ABcA GF G3/2e/2|
dg gf/2e/2 dB Bd/2B/2|ABcd edBc|dg gf/2e/2 dB Bd/2B/2|ABcA GF G2||
|:dg ga/2b/2 aggd|e/2f/2g ed dBBc|dg ga/2b/2 aggd|e/2f/2g ed g2 g3/2e/2:|

